assets/images/spyglass-semiopaque.svg

<svg height="25" viewBox="0 0 26 25" width="26" xmlns="http://www.w3.org/2000/svg"><path d="m18.1749738 15.7607602 7.7747737 7.7747737-1.4142136 1.4142136-7.6745876-7.6745877c-1.7906686 1.6893314-4.2048794 2.7248402-6.8609463 2.7248402-5.5228475 0-10-4.4771525-10-10s4.4771525-10 10-10 10 4.4771525 10 10c0 2.1450026-.6753539 4.1322679-1.8250262 5.7607602zm-8.1749738 2.2392398c4.418278 0 8-3.581722 8-8s-3.581722-8-8-8-8 3.581722-8 8 3.581722 8 8 8z" fill-opacity=".9"/></svg>

<?xml version="1.0" encoding="UTF-8"?>
<svg width="26px" height="25px" viewBox="0 0 26 25" version="1.1" xmlns="http://www.w3.org/2000/svg" xmlns:xlink="http://www.w3.org/1999/xlink">
    <!-- Generator: Sketch 46.2 (44496) - http://www.bohemiancoding.com/sketch -->
    <title>Combined-Shape</title>
    <desc>Created with Sketch.</desc>
    <defs></defs>
    <g id="Page-1" stroke="none" stroke-width="1" fill="none" fill-rule="evenodd" fill-opacity="0.9">
        <g id="spyglass-white" fill-rule="nonzero" fill="#000000">
            <path d="M18.1749738,15.7607602 L25.9497475,23.5355339 L24.5355339,24.9497475 L16.8609463,17.2751598 C15.0702777,18.9644912 12.6560669,20 10,20 C4.4771525,20 0,15.5228475 0,10 C0,4.4771525 4.4771525,0 10,0 C15.5228475,0 20,4.4771525 20,10 C20,12.1450026 19.3246461,14.1322679 18.1749738,15.7607602 Z M10,18 C14.418278,18 18,14.418278 18,10 C18,5.581722 14.418278,2 10,2 C5.581722,2 2,5.581722 2,10 C2,14.418278 5.581722,18 10,18 Z" id="Combined-Shape"></path>
        </g>
    </g>
</svg>
